frontend/public/svg/interface/signal.svg

<svg width="162" height="125" viewBox="0 0 162 125" fill="none" xmlns="http://www.w3.org/2000/svg">
<g clip-path="url(#clip0)">
<path d="M143.636 3.2173C142.94 2.37846 142.091 1.67969 141.133 1.15792C140.79 0.944189 140.467 0.740666 140.203 0.543774C140.126 0.487084 140.038 0.447399 139.945 0.42708C139.851 0.406761 139.755 0.406501 139.662 0.426131C137.937 0.796598 136.727 1.54596 136.064 2.65217C135.756 3.21965 135.569 3.84491 135.517 4.48829C135.465 5.13167 135.548 5.77872 135.761 6.38829C136.677 9.61657 137.925 12.7421 139.483 15.7149C146.795 29.4326 149.251 45.1435 146.994 63.7452C145.558 76.0096 141.513 87.8263 135.129 98.4053C133.915 100.413 132.825 102.527 131.772 104.572C131.127 105.826 130.459 107.123 129.771 108.376C128.473 110.747 127.125 113.121 125.7 115.633C125.044 116.791 124.367 117.986 123.663 119.236C123.614 119.322 123.585 119.418 123.578 119.517C123.571 119.616 123.587 119.715 123.623 119.807C123.66 119.899 123.716 119.982 123.789 120.049C123.863 120.116 123.95 120.167 124.044 120.197L124.396 120.307C126.196 120.87 127.16 121.171 127.945 121.171C128.757 121.118 129.537 120.836 130.194 120.357C136.023 116.945 140.155 113.565 143.199 109.721C152.851 97.5322 158.307 86.3606 160.37 74.5627C161.194 69.4856 161.574 64.3462 161.503 59.2033C161.49 52.6308 161.477 45.8346 160.488 39.2666C158.317 24.8567 150.751 12.9569 143.636 3.2173Z" fill="black"/>
<path d="M38.2141 121.214C37.6722 120.44 37.0354 119.738 36.3185 119.122C31.9858 115.743 28.4906 111.216 25.6322 105.282C24.3806 102.685 23.0802 99.9062 21.4124 96.2714C16.4312 85.3971 14.4329 73.6367 15.3015 60.3209C16.4597 42.5786 19.7551 26.9842 25.3751 12.6461C25.9974 11.1684 26.4227 9.61573 26.6402 8.02765C26.7261 7.29145 26.6026 6.54611 26.2839 5.87656C25.9652 5.20702 25.4643 4.64018 24.8381 4.24126C24.2141 3.84742 23.4904 3.63985 22.7521 3.64261C22.0137 3.64536 21.2914 3.85827 20.6704 4.25675C19.0628 5.22091 17.7179 6.56567 16.7549 8.17156C14.2694 12.3855 12.045 16.7473 10.0937 21.2324C6.30242 30.3879 3.77894 40.5404 1.9138 54.1544C-0.343441 70.6218 2.74593 86.6937 11.3601 103.287C15.1397 110.569 20.1777 116.313 26.3328 120.361C29.1941 122.118 32.2155 123.6 35.3565 124.789C35.5212 124.856 35.6976 124.891 35.8757 124.89C36.5378 124.81 37.1745 124.586 37.7408 124.235C38.1531 124.027 38.5796 123.813 39.0392 123.635C39.1383 123.596 39.2268 123.535 39.2973 123.455C39.3677 123.376 39.4181 123.281 39.4444 123.179C39.4706 123.076 39.4719 122.968 39.4481 122.865C39.4245 122.762 39.3765 122.666 39.3081 122.585C38.89 122.089 38.5367 121.632 38.2141 121.214Z" fill="black"/>
<path d="M75.9053 85.354C75.9397 85.3592 75.9734 85.3612 76.0078 85.3612C86.7014 85.3359 94.3463 81.9292 100.068 74.6384C104.381 69.1429 105.662 63.0571 103.875 56.5499C101.454 47.7371 91.1464 39.4228 81.8168 38.759C65.6741 37.6152 55.8609 49.4308 54.4969 61.7003C53.2882 72.5814 59.414 81.4946 70.1034 84.4084C71.7037 84.8106 73.3325 85.0885 74.9756 85.24C75.3612 85.2834 75.6787 85.3191 75.9053 85.354ZM88.9158 67.4039C84.4714 72.2789 78.8176 74.0522 72.1062 72.6746C67.8442 71.8003 65.5449 69.104 65.0774 64.4339C64.641 60.3967 65.7499 56.3441 68.1818 53.088C70.6137 49.8318 74.1888 47.6127 78.1911 46.8751C79.1792 46.722 80.1783 46.6548 81.1774 46.6742C81.55 46.671 81.9077 46.6685 82.242 46.6556C87.7297 49.0157 89.7162 53.0206 91.0432 57.0012C92.3506 60.9215 91.6346 64.4216 88.9158 67.4039Z" fill="black"/>
<path d="M114.645 80.0607C113.841 83.3871 113.009 86.8268 112.239 90.2232C112.132 91.0127 112.214 91.8158 112.476 92.5684C112.585 93.0011 112.698 93.448 112.786 93.9577C112.813 94.1118 112.894 94.2524 113.014 94.3534C113.134 94.4544 113.286 94.5101 113.443 94.5101C113.513 94.5101 113.583 94.4991 113.649 94.4778C118.484 92.9059 120.881 89.9402 122.75 86.968C130.502 74.6442 132.897 61.6897 129.866 48.4662C128.336 42.151 125.741 36.141 122.194 30.6923C121.211 29.1669 120.046 27.7663 118.725 26.5213C117.546 25.3899 115.609 24.9022 114.18 26.1593C113.14 27.1289 112.429 28.3981 112.145 29.7901C112.064 30.8393 112.268 31.8906 112.736 32.8339C112.801 32.9945 112.859 33.1535 112.916 33.3096C113.394 34.614 113.924 35.9169 114.437 37.1772C114.748 37.9428 115.059 38.7091 115.361 39.4779C118.897 48.498 119.726 57.5588 117.823 66.4104C116.845 70.9758 115.728 75.5943 114.645 80.0607Z" fill="black"/>
<path d="M49.4666 39.2247C50.2701 38.0249 50.9872 36.7697 51.6123 35.4684C51.7985 35.0097 51.8601 34.5103 51.7911 34.0203C51.722 33.5303 51.5246 33.0671 51.2189 32.6775C50.9303 32.2459 50.5347 31.8958 50.0708 31.6614C49.6068 31.427 49.0903 31.3162 48.5707 31.3395C47.358 31.4515 45.9973 31.663 45.0702 32.4286C43.1785 33.9882 41.2223 35.6024 39.8434 37.6277C31.7532 49.5195 28.5988 62.5726 30.4672 76.4227C31.2332 82.0976 34.0779 87.1928 38.9229 91.5658C40.5945 93.0742 42.7947 94.604 45.8849 94.604C47.3487 94.5814 48.7951 94.2854 50.1494 93.731C50.2366 93.6967 50.3159 93.6442 50.3817 93.5781C50.4475 93.5114 50.4984 93.4318 50.5313 93.3443C50.5642 93.2569 50.5782 93.1636 50.5725 93.0704C50.5668 92.9771 50.5414 92.8858 50.4981 92.8029C49.9222 91.7018 49.4042 90.6539 48.9108 89.6585C47.9891 87.7064 46.9607 85.8061 45.8304 83.9661C42.6701 79.0438 41.1426 73.3955 41.1621 66.6947C41.1813 57.2724 43.8721 48.0474 48.9232 40.0855C49.1057 39.7973 49.2874 39.5116 49.4666 39.2247Z" fill="black"/>
</g>
<defs>
<clipPath id="clip0">
<rect width="161" height="125" fill="white" transform="translate(0.777344)"/>
</clipPath>
</defs>
</svg>

<svg xmlns="http://www.w3.org/2000/svg" width="162" height="125" fill="none" viewBox="0 0 162 125"><g fill="#000" clip-path="url(#a)"><path d="M143.636 3.217a8.6 8.6 0 0 0-2.503-2.06 14 14 0 0 1-.93-.613.68.68 0 0 0-.541-.118c-1.725.37-2.935 1.12-3.598 2.226a4.63 4.63 0 0 0-.303 3.736 48.8 48.8 0 0 0 3.722 9.327c7.312 13.718 9.768 29.429 7.511 48.03a86.6 86.6 0 0 1-11.865 34.66c-1.214 2.008-2.304 4.122-3.357 6.167a160 160 0 0 1-2.001 3.804c-1.298 2.371-2.646 4.745-4.071 7.257-.656 1.158-1.333 2.353-2.037 3.603a.662.662 0 0 0 .381.961l.352.11c1.8.563 2.764.864 3.549.864a4.3 4.3 0 0 0 2.249-.814c5.829-3.412 9.961-6.792 13.005-10.636 9.652-12.189 15.108-23.36 17.171-35.158a88.3 88.3 0 0 0 1.133-15.36c-.013-6.572-.026-13.368-1.015-19.936-2.171-14.41-9.737-26.31-16.852-36.05M38.214 121.214a11.3 11.3 0 0 0-1.895-2.092c-4.333-3.379-7.828-7.906-10.687-13.84a518 518 0 0 1-4.22-9.01c-4.98-10.875-6.98-22.635-6.11-35.951 1.158-17.742 4.453-33.337 10.073-47.675a18.3 18.3 0 0 0 1.265-4.618 3.94 3.94 0 0 0-1.802-3.787 3.88 3.88 0 0 0-4.168.016 11.4 11.4 0 0 0-3.915 3.915 120 120 0 0 0-6.661 13.06c-3.792 9.156-6.315 19.308-8.18 32.922-2.257 16.468.832 32.54 9.446 49.133 3.78 7.282 8.818 13.026 14.973 17.074a53.3 53.3 0 0 0 9.023 4.428c.165.067.342.102.52.101a4.6 4.6 0 0 0 1.865-.655c.412-.208.839-.422 1.298-.6a.67.67 0 0 0 .41-.77.7.7 0 0 0-.14-.28 39 39 0 0 1-1.095-1.371m37.691-35.86a1 1 0 0 0 .103.007c10.693-.025 18.338-3.432 24.06-10.723 4.313-5.495 5.594-11.58 3.807-18.088-2.421-8.813-12.729-17.127-22.058-17.791C65.674 37.615 55.86 49.431 54.497 61.7c-1.209 10.881 4.917 19.795 15.606 22.708 1.6.403 3.23.68 4.873.832.385.043.703.08.93.114m13.01-17.95c-4.444 4.875-10.097 6.648-16.809 5.27-4.262-.874-6.561-3.57-7.029-8.24a16.07 16.07 0 0 1 3.105-11.346 16.14 16.14 0 0 1 10.01-6.213c.987-.153 1.986-.22 2.985-.2.373-.004.73-.006 1.065-.02 5.488 2.36 7.474 6.366 8.801 10.346 1.308 3.92.592 7.42-2.127 10.403"/><path d="M114.645 80.06c-.804 3.327-1.636 6.767-2.406 10.163a5.06 5.06 0 0 0 .237 2.345c.109.433.222.88.31 1.39a.67.67 0 0 0 .863.52c4.835-1.572 7.232-4.538 9.101-7.51 7.752-12.324 10.147-25.278 7.116-38.502a57.3 57.3 0 0 0-7.672-17.774 22.4 22.4 0 0 0-3.469-4.17c-1.179-1.132-3.116-1.62-4.545-.363a6.83 6.83 0 0 0-2.035 3.631c-.081 1.05.123 2.1.591 3.044q.096.241.18.476a118 118 0 0 0 1.521 3.867c.311.766.622 1.532.924 2.3 3.536 9.021 4.365 18.082 2.462 26.933-.978 4.566-2.095 9.184-3.178 13.65M49.467 39.225a30.4 30.4 0 0 0 2.145-3.757 2.81 2.81 0 0 0-.393-2.79 3.02 3.02 0 0 0-2.648-1.338c-1.213.111-2.574.323-3.5 1.089-1.892 1.56-3.849 3.173-5.228 5.199-8.09 11.892-11.244 24.945-9.376 38.795.766 5.675 3.61 10.77 8.456 15.143 1.671 1.508 3.872 3.038 6.962 3.038a11.7 11.7 0 0 0 4.264-.873.68.68 0 0 0 .382-.387.66.66 0 0 0-.033-.541c-.576-1.101-1.094-2.15-1.587-3.144a59 59 0 0 0-3.08-5.693c-3.16-4.922-4.688-10.57-4.669-17.271a49.86 49.86 0 0 1 7.761-26.61q.274-.43.544-.86"/></g><defs><clipPath id="a"><path fill="#fff" d="M.777 0h161v125h-161z"/></clipPath></defs></svg>
